static/img/kroki/887008a83e33d9ba9ae447b1be0da9f1.svg

<?xml version="1.0" encoding="us-ascii" standalone="no"?><svg xmlns="http://www.w3.org/2000/svg" xmlns:xlink="http://www.w3.org/1999/xlink" contentStyleType="text/css" height="152px" preserveAspectRatio="none" style="width:368px;height:152px;" version="1.1" viewBox="0 0 368 152" width="368px" zoomAndPan="magnify"><defs/><g><!--class aws_cloudfront_distribution--><g id="elem_aws_cloudfront_distribution"><rect codeLine="23" fill="#3D176E" height="39.7891" id="aws_cloudfront_distribution" rx="2.5" ry="2.5" style="stroke:#000D19;stroke-width:0.5;" width="274" x="47" y="7"/><ellipse cx="62" cy="26.8945" fill="#ADD1B2" rx="11" ry="11" style="stroke:#181818;stroke-width:1.0;"/><path d="M64.9688,32.5352 Q64.3906,32.832 63.75,32.9727 Q63.1094,33.1289 62.4063,33.1289 Q59.9063,33.1289 58.5781,31.4883 Q57.2656,29.832 57.2656,26.707 Q57.2656,23.582 58.5781,21.9258 Q59.9063,20.2695 62.4063,20.2695 Q63.1094,20.2695 63.75,20.4258 Q64.4063,20.582 64.9688,20.8789 L64.9688,23.5977 Q64.3438,23.0195 63.75,22.7539 Q63.1563,22.4727 62.5313,22.4727 Q61.1875,22.4727 60.5,23.5508 Q59.8125,24.6133 59.8125,26.707 Q59.8125,28.8008 60.5,29.8789 Q61.1875,30.9414 62.5313,30.9414 Q63.1563,30.9414 63.75,30.6758 Q64.3438,30.3945 64.9688,29.8164 L64.9688,32.5352 Z " fill="#000000"/><text fill="#D9B8FF" font-family="Helvetica" font-size="17" lengthAdjust="spacing" textLength="232" x="81" y="32.7798">aws_cloudfront_distribution</text></g><!--class aws_cloudfront_origin_access_control--><g id="elem_aws_cloudfront_origin_access_control"><rect codeLine="26" fill="#3D176E" height="39.7891" id="aws_cloudfront_origin_access_control" rx="2.5" ry="2.5" style="stroke:#000D19;stroke-width:0.5;" width="354" x="7" y="106.79"/><ellipse cx="22" cy="126.6845" fill="#ADD1B2" rx="11" ry="11" style="stroke:#181818;stroke-width:1.0;"/><path d="M24.9688,132.3252 Q24.3906,132.622 23.75,132.7627 Q23.1094,132.9189 22.4063,132.9189 Q19.9063,132.9189 18.5781,131.2783 Q17.2656,129.622 17.2656,126.497 Q17.2656,123.372 18.5781,121.7158 Q19.9063,120.0595 22.4063,120.0595 Q23.1094,120.0595 23.75,120.2158 Q24.4063,120.372 24.9688,120.6689 L24.9688,123.3877 Q24.3438,122.8095 23.75,122.5439 Q23.1563,122.2627 22.5313,122.2627 Q21.1875,122.2627 20.5,123.3408 Q19.8125,124.4033 19.8125,126.497 Q19.8125,128.5908 20.5,129.6689 Q21.1875,130.7314 22.5313,130.7314 Q23.1563,130.7314 23.75,130.4658 Q24.3438,130.1845 24.9688,129.6064 L24.9688,132.3252 Z " fill="#000000"/><text fill="#D9B8FF" font-family="Helvetica" font-size="17" lengthAdjust="spacing" textLength="312" x="41" y="132.5698">aws_cloudfront_origin_access_control</text></g><!--link aws_cloudfront_distribution to aws_cloudfront_origin_access_control--><g id="link_aws_cloudfront_distribution_aws_cloudfront_origin_access_control"><path codeLine="29" d="M184,47.22 C184,64.36 184,83.27 184,100.41 " fill="none" id="aws_cloudfront_distribution-to-aws_cloudfront_origin_access_control" style="stroke:#1A83AF;stroke-width:2.0;"/><polygon fill="#1A83AF" points="184,106.41,188,97.41,184,101.41,180,97.41,184,106.41" style="stroke:#1A83AF;stroke-width:2.0;"/></g><!--SRC=[ZP91IyD048Nl-HKBFHSQYpQv26cXwAM8zIOIfhkpxT9afynkBLNyxoP6PKtQrEkyZpVl3RCn2WMMEtyK9POhP1UvhR4xO2X5nao76HN4Og0rwF6aBSx9-el00aeKTrYyeZSIsiJJniYjHUV4LI1DGMxNJ7kh6dlFO5qbeVK1DIl0kSnxDgkzno2CIbU9rcsoRJeOgtXoWnsCM25_8wFHICLf6xcughVtBx4qRoZYy6WByjY9sLdnHVMch8aWPAVeZtusumCePUnQN0UpnoOJM-G_y-K651rgMaFXmZNE8oFvumvddLQO9afFJiBtv-18rgSJS72vB6YlD5STScLSymA6h7YFee_J6B5P6vk3bDMtvR8QCHKDtsSuV1x4MJBEvY_3stzPHfy0]--></g></svg>

<svg xmlns="http://www.w3.org/2000/svg" width="368" height="152" viewBox="0 0 368 152"><rect width="274" height="39.789" x="47" y="7" fill="#3D176E" rx="2.5" ry="2.5" style="stroke:#000d19;stroke-width:.5"/><circle cx="62" cy="26.895" r="11" fill="#ADD1B2" style="stroke:#181818;stroke-width:1"/><path d="M64.969 32.535q-.578.297-1.219.438-.64.156-1.344.156-2.5 0-3.828-1.64-1.312-1.657-1.312-4.782t1.312-4.781q1.328-1.656 3.828-1.656.703 0 1.344.156.656.156 1.219.453v2.719q-.625-.578-1.219-.844-.594-.281-1.219-.281-1.343 0-2.031 1.078-.687 1.062-.687 3.156t.687 3.172q.688 1.062 2.031 1.062.625 0 1.219-.265.594-.281 1.219-.86z"/><text x="81" y="32.78" fill="#D9B8FF" font-family="Helvetica" font-size="17" textLength="232">aws_cloudfront_distribution</text><rect width="354" height="39.789" x="7" y="106.79" fill="#3D176E" rx="2.5" ry="2.5" style="stroke:#000d19;stroke-width:.5"/><circle cx="22" cy="126.684" r="11" fill="#ADD1B2" style="stroke:#181818;stroke-width:1"/><path d="M24.969 132.325q-.578.297-1.219.438-.64.156-1.344.156-2.5 0-3.828-1.64-1.312-1.657-1.312-4.782t1.312-4.781q1.328-1.656 3.828-1.656.703 0 1.344.156.656.156 1.219.453v2.719q-.625-.579-1.219-.844-.594-.281-1.219-.281-1.343 0-2.031 1.078-.687 1.062-.687 3.156t.687 3.172q.688 1.062 2.031 1.062.625 0 1.219-.265.594-.281 1.219-.86z"/><text x="41" y="132.57" fill="#D9B8FF" font-family="Helvetica" font-size="17" textLength="312">aws_cloudfront_origin_access_control</text><path fill="none" d="M184 47.22v53.19" style="stroke:#1a83af;stroke-width:2"/><path fill="#1A83AF" d="m184 106.41 4-9-4 4-4-4z" style="stroke:#1a83af;stroke-width:2"/></svg>
